X:1
T:Title
%%score ( 1 2 ) { 3 | ( 4 5 ) }
L:1/8
Q:1/4=135
M:6/4
K:F
V:1 treble nm="Grand Piano, Soprano"
V:2 treble 
V:3 treble nm="Choir Pad, Bass"
V:4 bass 
V:5 bass 
V:1
 F[FG] [FA]2 [FA]2 [FA]2 [FA]2 [FG]2 | F2 [Fd]4- [Fd]2 [Fc]4 | %2
w: By~Haldor~Lillenas * * * * * *||
 F[FG] [FA]2 [FA]2 [CG]2 [DF]2 [DE]2 | z2 G4- G4- G3/2 z/ | F[FG] [FA]2 [FA]2 [FA]2 [FA]2 [FG]2 | %5
w: |||
 F2 [Fd]4- [Fd]2 [Fc]4 | [Fc][Fd] [Ee]2 [EG]2 [EG]2 [FA]2 [FA]2 | [F=B]2 [Fd]4 [Fe]2 [Ec]4 | %8
w: |||
 [FA][GB] [Ac]2 [_A=B]2 [=Ac]2 [_Bd]2 [Ac]2 | [FA]2 c4- [_Ec-]2 [=Ec]3- [E-c]/E/ | %10
w: ||
 [FA][FA] [EA]2 [EA]2 [EA]2 [^CE]2 [DF]2 | [^CG]2 [DF]4- [DF]4- [DF]3/2 z/ | %12
w: ||
 [DF][DF] [Fd]2 [Fd]2 [Fd]2 [Fc]2 [Fc]2 | [Fc]2 [F=B]4- [FB]2 [Ff]4 | %14
w: ||
 F[FG] [FA]2 [Fc]2 [FA]2 [FB]2 [FA]2 | [EG]2 F2 C2 =B,2 C4- | C6 z6 |] %17
w: |||
V:2
 x12 | x12 | x12 | [DF]2 E4 F2 E4 | x12 | x12 | x12 | x12 | x12 | z2 F4 z6 | x12 | x12 | x12 | %13
 x12 | x12 | x12 | x12 |] %17
V:3
 A,B, C2 C2 C2 C2[K:bass] B,2 | A,2 B,4- B,2 A,4 | A,B, C2 C2 B,2 A,2 A,2 | =B,2 C4 B,2 _B,4 | %4
 A,B,[K:treble] C2 C2 C2 C2 B,2 | A,2 B,4- B,2 A,4 | A,A,[K:treble] C2 C2 C2 =B,2 B,2 | %7
 D2 =B,4 B,2 C4 | CC F2 F2 F2 F2 F2 | C2[K:bass] A,4 A,2 B,4 | CC[K:treble] ^C2 C2 C2 A,2 A,2 | %11
 A,2 A,4- A,4- A,3/2 z/ | A,A, B,2 B,2 B,2 A,2 A,2 | A,2 _A,4- A,2 A,4 | %14
 A,B,[K:treble] C2 A,2 C2 D2 C2 | B,2 A,4 _A,2 =A,4- | A,6 z6 |] %17
V:4
 F,F, F,2 F,2 F,2 F,2 F,2 | F,2 F,4- F,2 F,4 | F,F, F,2 F,2 C,2 D,2 D,2 | z2 C,4- C,3- C,/ z/ z2 | %4
 F,F, F,2 F,2 F,2 F,2 F,2 | F,2 F,4- F,2 F,4 | F,F, G,2 G,2 G,2 G,2 G,2 | G,2 G,4 G,2 C,4 | %8
 F,F, F,2 F,2 F,2 F,2 F,2 | F,2 F,4 ^F,2 G,4 | F,F, A,2 A,2 A,2 G,2 F,2 | %11
 E,2 D,2 A,,2 D,2 F,2 E,2 | D,D, B,,2 B,,2 B,,2 C,2 C,2 | C,2 ^C,4- C,2 C,4 | %14
 C,C, C,2 C,2 C,2 C,2 C,2 | C,2 F,4- F,6- | F,6 z6 |] %17
V:5
 x12 | x12 | x12 | .G,,6 .D,6 | x12 | x12 | x12 | x12 | x12 | x12 | x12 | x12 | x12 | x12 | x12 | %15
 x12 | x12 |] %17

